img/illustrations/Registration_evat.svg

<svg width="145" height="145" viewBox="0 0 145 145" fill="none" xmlns="http://www.w3.org/2000/svg">
<path d="M5 120H14.77" stroke="#007B64" stroke-width="2" stroke-linecap="round" stroke-linejoin="round"/>
<path d="M18.8101 120H126.2" stroke="#007B64" stroke-width="2" stroke-linecap="round" stroke-linejoin="round"/>
<path d="M130.24 120H140" stroke="#007B64" stroke-width="2" stroke-linecap="round" stroke-linejoin="round"/>
<path d="M34.9298 35.83C34.9298 35.83 36.2898 44.16 37.9298 53.83C39.1298 60.94 35.8598 71.32 32.5698 73.5L29.5698 42.5V39.5L30.9298 37.63" fill="#EBEBEB"/>
<path d="M46.3401 119.41L44.6701 119.6C43.0458 119.792 41.4118 119.33 40.1273 118.318C38.8429 117.305 38.013 115.824 37.8201 114.2L29.4301 42.43C29.3353 41.6262 29.3998 40.8117 29.6198 40.0329C29.8399 39.254 30.2113 38.5262 30.7128 37.891C31.2143 37.2558 31.836 36.7256 32.5425 36.3308C33.249 35.936 34.0263 35.6842 34.8301 35.59" stroke="#007B64" stroke-width="1.9" stroke-linecap="round" stroke-linejoin="round"/>
<path d="M41.5698 74.5C41.5698 74.5 47.5698 78.5 50.5698 98.5C53.5698 118.5 56.5698 119.5 58.5698 119.5L47.6898 119.9L44.5298 118.37L42.6298 115.5L40.5698 74.5H41.5698Z" fill="#EBEBEB"/>
<path d="M53.6101 119.83L49.1501 120.02C47.4079 120.093 45.7079 119.472 44.4235 118.292C43.1392 117.113 42.3754 115.472 42.3001 113.73L39.0101 36.73C38.9726 35.867 39.1055 35.0051 39.4014 34.1936C39.6974 33.382 40.1504 32.6368 40.7346 32.0006C41.3188 31.3643 42.0228 30.8495 42.8062 30.4857C43.5896 30.1218 44.4371 29.916 45.3001 29.88" stroke="#007B64" stroke-width="2" stroke-linecap="round" stroke-linejoin="round"/>
<path d="M115.63 42.76V114C115.63 115.591 114.998 117.117 113.873 118.243C112.747 119.368 111.221 120 109.63 120H55.6299C54.0386 120 52.5125 119.368 51.3872 118.243C50.262 117.117 49.6299 115.591 49.6299 114V30C49.6299 28.4087 50.262 26.8825 51.3872 25.7573C52.5125 24.6321 54.0386 24 55.6299 24H98.1399L115.63 42.5" fill="white"/>
<path d="M49.5698 111.5H115.57V112.5C115.57 114.356 114.832 116.137 113.52 117.45C112.207 118.762 110.426 119.5 108.57 119.5H56.5698C54.7133 119.5 52.9328 118.762 51.6201 117.45C50.3073 116.137 49.5698 114.356 49.5698 112.5V111.5Z" fill="#F1F1F1"/>
<path d="M115.63 42.76V114C115.63 115.591 114.998 117.117 113.873 118.243C112.747 119.368 111.221 120 109.63 120H55.6299C54.0386 120 52.5125 119.368 51.3872 118.243C50.262 117.117 49.6299 115.591 49.6299 114V30C49.6299 28.4087 50.262 26.8825 51.3872 25.7573C52.5125 24.6321 54.0386 24 55.6299 24H97.7099C97.8453 24.0018 97.979 24.031 98.1027 24.0861C98.2265 24.1411 98.3378 24.2206 98.4299 24.32L115.63 42.5" stroke="#007B64" stroke-width="2" stroke-linecap="round" stroke-linejoin="round"/>
<path d="M107.63 42.5H102.63C101.039 42.5 99.5125 41.8678 98.3872 40.7426C97.262 39.6174 96.6299 38.0913 96.6299 36.5V31.5" stroke="#007B64" stroke-width="2" stroke-linecap="round" stroke-linejoin="round"/>
<path d="M62.6299 80.75H104.63" stroke="#007B64" stroke-width="2" stroke-linecap="round" stroke-linejoin="round"/>
<path d="M58.6302 81.7C59.1548 81.7 59.5802 81.2746 59.5802 80.75C59.5802 80.2253 59.1548 79.8 58.6302 79.8C58.1055 79.8 57.6802 80.2253 57.6802 80.75C57.6802 81.2746 58.1055 81.7 58.6302 81.7Z" fill="#007B64"/>
<path d="M62.6299 87.39H104.63" stroke="#007B64" stroke-width="2" stroke-linecap="round" stroke-linejoin="round"/>
<path d="M58.6302 88.34C59.1548 88.34 59.5802 87.9146 59.5802 87.39C59.5802 86.8653 59.1548 86.44 58.6302 86.44C58.1055 86.44 57.6802 86.8653 57.6802 87.39C57.6802 87.9146 58.1055 88.34 58.6302 88.34Z" fill="#007B64"/>
<path d="M62.6299 94.02H104.63" stroke="#007B64" stroke-width="2" stroke-linecap="round" stroke-linejoin="round"/>
<path d="M58.6302 94.9699C59.1548 94.9699 59.5802 94.5446 59.5802 94.02C59.5802 93.4953 59.1548 93.0699 58.6302 93.0699C58.1055 93.0699 57.6802 93.4953 57.6802 94.02C57.6802 94.5446 58.1055 94.9699 58.6302 94.9699Z" fill="#007B64"/>
<path d="M62.6299 100.65H104.63" stroke="#007B64" stroke-width="2" stroke-linecap="round" stroke-linejoin="round"/>
<path d="M58.6302 101.6C59.1548 101.6 59.5802 101.175 59.5802 100.65C59.5802 100.125 59.1548 99.7 58.6302 99.7C58.1055 99.7 57.6802 100.125 57.6802 100.65C57.6802 101.175 58.1055 101.6 58.6302 101.6Z" fill="#007B64"/>
<path d="M80.6299 41.5H60.6299C58.973 41.5 57.6299 42.8431 57.6299 44.5V69.5C57.6299 71.1568 58.973 72.5 60.6299 72.5H80.6299C82.2867 72.5 83.6299 71.1568 83.6299 69.5V44.5C83.6299 42.8431 82.2867 41.5 80.6299 41.5Z" fill="#FFC463"/>
</svg>

<svg width="145" height="145" fill="none" xmlns="http://www.w3.org/2000/svg"><path d="M5 120h9.77m4.04 0H126.2m4.04 0H140" stroke="#007B64" stroke-width="2" stroke-linecap="round" stroke-linejoin="round"/><path d="M34.93 35.83s1.36 8.33 3 18c1.2 7.11-2.07 17.49-5.36 19.67l-3-31v-3l1.36-1.87" fill="#EBEBEB"/><path d="M46.34 119.41l-1.67.19a6.171 6.171 0 01-6.85-5.4l-8.39-71.77a6.162 6.162 0 015.4-6.84" stroke="#007B64" stroke-width="1.9" stroke-linecap="round" stroke-linejoin="round"/><path d="M41.57 74.5s6 4 9 24 6 21 8 21l-10.88.4-3.16-1.53-1.9-2.87-2.06-41h1z" fill="#EBEBEB"/><path d="M53.61 119.83l-4.46.19a6.579 6.579 0 01-6.85-6.29l-3.29-77a6.571 6.571 0 016.29-6.85" stroke="#007B64" stroke-width="2" stroke-linecap="round" stroke-linejoin="round"/><path d="M115.63 42.76V114a6.003 6.003 0 01-1.757 4.243A6.003 6.003 0 01109.63 120h-54a6 6 0 01-6-6V30a6 6 0 016-6h42.51l17.49 18.5" fill="#fff"/><path d="M49.57 111.5h66v1a7.005 7.005 0 01-2.05 4.95 7.005 7.005 0 01-4.95 2.05h-52a7.003 7.003 0 01-7-7v-1z" fill="#F1F1F1"/><path d="M115.63 42.76V114a6.003 6.003 0 01-1.757 4.243A6.003 6.003 0 01109.63 120h-54a6 6 0 01-6-6V30a6 6 0 016-6h42.08a.998.998 0 01.72.32l17.2 18.18" stroke="#007B64" stroke-width="2" stroke-linecap="round" stroke-linejoin="round"/><path d="M107.63 42.5h-5a6.001 6.001 0 01-6-6v-5m-34 49.25h42" stroke="#007B64" stroke-width="2" stroke-linecap="round" stroke-linejoin="round"/><path d="M58.63 81.7a.95.95 0 100-1.9.95.95 0 000 1.9z" fill="#007B64"/><path d="M62.63 87.39h42" stroke="#007B64" stroke-width="2" stroke-linecap="round" stroke-linejoin="round"/><path d="M58.63 88.34a.95.95 0 100-1.9.95.95 0 000 1.9z" fill="#007B64"/><path d="M62.63 94.02h42" stroke="#007B64" stroke-width="2" stroke-linecap="round" stroke-linejoin="round"/><path d="M58.63 94.97a.95.95 0 100-1.9.95.95 0 000 1.9z" fill="#007B64"/><path d="M62.63 100.65h42" stroke="#007B64" stroke-width="2" stroke-linecap="round" stroke-linejoin="round"/><path d="M58.63 101.6a.95.95 0 100-1.9.95.95 0 000 1.9z" fill="#007B64"/><path d="M80.63 41.5h-20a3 3 0 00-3 3v25a3 3 0 003 3h20a3 3 0 003-3v-25a3 3 0 00-3-3z" fill="#FFC463"/></svg>
